Papirus/22x22/apps/abiword.svg

<?xml version="1.0" encoding="UTF-8" standalone="no"?>
<svg xmlns="http://www.w3.org/2000/svg" height="22" viewBox="0 0 22 22" width="22" version="1.1">
 <path d="M 11,1.0000001 A 10,10 0 0 0 1,11 10,10 0 0 0 11,21 10,10 0 0 0 21,11 10,10 0 0 0 11,1.0000001 Z" style="fill:#248afd;"/>
 <path style="opacity:0.2" d="M 1.0098,11.207 A 10,10 0 0 0 1,11.5 a 10,10 0 0 0 10,10 10,10 0 0 0 10,-10 10,10 0 0 0 -0.0098,-0.20703 10,10 0 0 1 -9.99,9.707 10,10 0 0 1 -9.9902,-9.793 z"/>
 <path style="opacity:0.2;fill:#ffffff" d="M 11,1.0000001 A 10,10 0 0 0 1,11 10,10 0 0 0 1.0098,11.207 10,10 0 0 1 11,1.5000001 10,10 0 0 1 20.99,11.293 10,10 0 0 0 21,11 10,10 0 0 0 11,1.0000001 Z"/>
 <path style="opacity:0.2;" d="M 11.205078,2.5039063 C 10.5213,2.4554645 9.81417,2.9719988 9.341797,3.4492189 7.3631046,5.4425077 6.1575505,8.0431041 4.9765625,10.554688 4.0585303,12.535765 3.3651217,14.608209 2.7988281,16.714844 a 10,10 0 0 0 1.5429688,1.730468 c 0.048857,-0.434855 0.1964789,-0.911638 0.28125,-1.222656 0.909909,-2.95273 2.3203714,-5.716297 3.6621093,-8.4882809 C 8.8163963,7.858567 9.192551,6.6514262 10.263672,6.3144532 c 1.040399,-0.116119 1.724768,0.8955006 2.263672,1.6328125 2.077281,3.1956163 4.037389,6.4744013 5.785156,9.8632813 a 10,10 0 0 0 0.578125,-0.673828 C 17.690408,13.095551 16.145173,9.1533441 13.984375,5.529297 13.336316,4.5717559 12.745462,3.532027 11.871094,2.7617189 11.658068,2.5973945 11.433004,2.5200536 11.205078,2.5039063 Z m 4.21875,12.9218747 c -3.187117,1.582627 -6.4645479,3.064151 -9.9296874,3.914063 a 10,10 0 0 0 1.9003906,0.986328 c 1.4338002,-0.574651 2.8238598,-1.268377 4.1621098,-2.029297 1.384756,-0.816758 2.715104,-1.743391 3.867187,-2.871094 z"/>
 <path style="fill:#cccccc;stroke-width:0.07753421px;" d="m 15.424795,14.925609 c -3.330544,1.653848 -6.7584084,3.205905 -10.3974655,4.03276 -1.1730047,-0.0057 -0.5942493,-1.539668 -0.4047885,-2.23478 0.9099086,-2.95273 2.3207882,-5.717103 3.6625264,-8.4890868 0.5312407,-0.8758081 0.9080466,-2.082832 1.9791676,-2.419805 1.040399,-0.116119 1.723988,0.8945205 2.262892,1.6318324 2.203581,3.3899114 4.284552,6.8685284 6.109696,10.4783554 C 19.099076,18.865758 19.551941,19.811241 20,20.758968 18.667682,15.296584 16.874411,9.878122 13.983495,5.0295352 13.335436,4.0719941 12.745232,3.0329537 11.870864,2.2626456 11.01876,1.6053481 9.970677,2.3130079 9.340846,2.9493013 7.3621532,4.9425902 6.156902,7.5436091 4.9759133,10.055192 c -1.3773858,2.972345 -2.2811231,6.140634 -2.944515,9.340958 -0.2325833,1.077818 0.871142,1.86016 1.8519961,1.525722 2.7168116,-0.567573 5.2699396,-1.758109 7.6727776,-3.124346 1.384756,-0.816758 2.71654,-1.744214 3.868623,-2.871917 z"/>
</svg>

<?xml version="1.0" encoding="UTF-8" standalone="no"?>
<svg width="22" xmlns="http://www.w3.org/2000/svg" viewBox="0 0 22 22" version="1.1" height="22">
 <circle cy="11.5" cx="11" r="10" style="opacity:.2"/>
 <circle style="fill:#248afd" cx="11" r="10" cy="11"/>
 <path style="opacity:.2" d="m11.205 2.5039c-0.684-0.0484-1.391 0.4681-1.863 0.9453-1.9789 1.9933-3.1844 4.5939-4.3654 7.1058-0.9181 1.981-1.6115 4.053-2.1778 6.16a10 10 0 0 0 1.543 1.73c0.0489-0.435 0.1965-0.911 0.2812-1.222 0.91-2.953 2.3204-5.717 3.6622-8.4886 0.5312-0.8758 0.9078-2.083 1.9788-2.4199 1.04-0.1162 1.724 0.8955 2.263 1.6328 2.078 3.1957 4.038 6.4747 5.785 9.8637a10 10 0 0 0 0.579 -0.674c-1.201-4.04-2.746-7.983-4.907-11.607-0.648-0.9572-1.239-1.997-2.113-2.7673-0.213-0.1643-0.438-0.2416-0.666-0.2578zm4.219 12.922c-3.187 1.582-6.4647 3.064-9.9299 3.914a10 10 0 0 0 1.9004 0.986c1.4338-0.574 2.8235-1.268 4.1625-2.029 1.384-0.817 2.715-1.744 3.867-2.871z"/>
 <path style="fill:#cccccc" d="m15.425 14.926c-3.331 1.654-6.7584 3.206-10.397 4.033-1.173-0.006-0.5942-1.54-0.4048-2.235 0.90991-2.9527 2.3208-5.7171 3.6625-8.4891 0.53124-0.87581 0.90805-2.0828 1.9792-2.4198 1.0404-0.11612 1.724 0.89452 2.2629 1.6318 2.2036 3.3899 4.2846 6.8685 6.1097 10.478 0.462 0.941 0.915 1.886 1.363 2.834-1.332-5.462-3.126-10.881-6.017-15.73-0.648-0.957-1.238-1.996-2.112-2.7664-0.852-0.6573-1.9 0.0504-2.53 0.6867-1.9788 1.9933-3.1841 4.5943-4.3651 7.1057-1.3774 2.9723-2.2811 6.1406-2.9445 9.341-0.23258 1.0778 0.87114 1.8602 1.852 1.5257 2.7168-0.56757 5.2699-1.7581 7.6728-3.1243 1.3848-0.81676 2.7165-1.7442 3.8686-2.8719z"/>
 <path style="opacity:.2;fill:#ffffff" d="m11 1a10 10 0 0 0 -10 10 10 10 0 0 0 0.0098 0.293 10 10 0 0 1 9.9902 -9.793 10 10 0 0 1 9.99 9.707 10 10 0 0 0 0.01 -0.207 10 10 0 0 0 -10 -10z"/>
</svg>
